dist/images/assets/landing-type.svg

<?xml version="1.0" encoding="UTF-8" standalone="no"?>
<svg width="39px" height="50px" viewBox="0 0 39 50" version="1.1" xmlns="http://www.w3.org/2000/svg" xmlns:xlink="http://www.w3.org/1999/xlink" xmlns:sketch="http://www.bohemiancoding.com/sketch/ns">
    <!-- Generator: Sketch 3.3.2 (12043) - http://www.bohemiancoding.com/sketch -->
    <title>T</title>
    <desc>Created with Sketch.</desc>
    <defs></defs>
    <g id="Page-1" stroke="none" stroke-width="1" fill="none" fill-rule="evenodd" sketch:type="MSPage">
        <path d="M0.51171875,4.2109375 C0.51171875,3.20311996 0.869137051,2.34180045 1.58398438,1.62695312 C2.2988317,0.912105801 3.16015121,0.5546875 4.16796875,0.5546875 L34.578125,0.5546875 C35.5859425,0.5546875 36.4472621,0.912105801 37.1621094,1.62695312 C37.8769567,2.34180045 38.234375,3.20311996 38.234375,4.2109375 C38.234375,5.21875504 37.8769567,6.08593387 37.1621094,6.8125 C36.4472621,7.53906613 35.5859425,7.90234375 34.578125,7.90234375 L23.5390625,7.90234375 L23.5390625,45.4140625 C23.5390625,46.5859434 23.140629,47.5703085 22.34375,48.3671875 C21.546871,49.1640665 20.5625059,49.5625 19.390625,49.5625 C18.2187441,49.5625 17.2285197,49.1582072 16.4199219,48.3496094 C15.6113241,47.5410116 15.2070312,46.5625057 15.2070312,45.4140625 L15.2070312,7.90234375 L4.16796875,7.90234375 C3.16015121,7.90234375 2.2988317,7.53906613 1.58398438,6.8125 C0.869137051,6.08593387 0.51171875,5.21875504 0.51171875,4.2109375 L0.51171875,4.2109375 Z" id="T" fill="#FFFFFF" sketch:type="MSShapeGroup"></path>
    </g>
</svg>

<svg width="39" height="50" viewBox="0 0 39 50" xmlns="http://www.w3.org/2000/svg"><title>T</title><path d="M.512 4.21c0-1.007.357-1.868 1.072-2.583C2.3.912 3.16.555 4.168.555h30.41c1.008 0 1.87.357 2.584 1.072.715.715 1.072 1.576 1.072 2.584 0 1.01-.357 1.876-1.072 2.603-.715.726-1.576 1.09-2.584 1.09h-11.04v37.51c0 1.173-.397 2.157-1.194 2.954-.797.797-1.78 1.196-2.953 1.196-1.17 0-2.16-.405-2.97-1.213-.81-.81-1.213-1.787-1.213-2.936V7.902H4.167c-1.007 0-1.868-.363-2.583-1.09C.87 6.087.512 5.22.512 4.213z" fill="#FFF" fill-rule="evenodd"/></svg>
